; generated by PrusaSlicer 2.5.0+MacOS-arm64 on 2022-10-08 at 02:38:50 UTC


;
;

;
;
; 

; external perimeters extrusion width = 0.45mm
; perimeters extrusion width = 0.45mm
; infill extrusion width = 0.45mm
; solid infill extrusion width = 0.45mm
; top infill extrusion width = 0.40mm
; first layer extrusion width = 0.42mm

M73 P0 R85
M201 X2500 Y2500 Z400 E5000 ; sets maximum accelerations, mm/sec^2
M203 X180 Y180 Z12 E80 ; sets maximum feedrates, mm / sec
M204 P1250 R1250 T2500 ; sets acceleration (P, T) and retract acceleration (R), mm/sec^2
M205 X8.00 Y8.00 Z2.00 E10.00 ; sets the jerk limits, mm/sec
M205 S0 T0 ; sets the minimum extruding and travel feed rate, mm/sec
M107
;TYPE:Custom
M862.3 P "MINI" ; printer model check
G90 ; use absolute coordinates
M83 ; extruder relative mode
M104 S170 ; set extruder temp for bed leveling
M140 S85 ; set bed temp
M109 R170 ; wait for bed leveling temp
M190 S85 ; wait for bed temp
M204 T1250 ; set travel acceleration
G28 ; home all without mesh bed level
G29 ; mesh bed leveling 
M204 T2500 ; restore travel acceleration
M104 S230 ; set extruder temp
G92 E0
G1 Y-2 X179 F2400
G1 Z3 F720
M109 S230 ; wait for extruder temp

; intro line
G1 X170 F1000
G1 Z0.2 F720
G1 X110 E8 F900
G1 X40 E10 F700
G92 E0

M221 S95 ; set flow
G21 ; set units to millimeters
G90 ; use absolute coordinates
M83 ; use relative distances for extrusion
M900 K0.2 ; Filament gcode
M107
;LAYER_CHANGE
;Z:0.2
;HEIGHT:0.2
;BEFORE_LAYER_CHANGE
G92 E0.0
;0.2


G1 E-3.2 F2700
G1 Z.2 F720
;AFTER_LAYER_CHANGE
;0.2
G1 Z.4
G1 X45.198 Y39.555 F9000
G1 Z.2 F720
G1 E3.2 F1500
M204 P800
;TYPE:Skirt/Brim
;WIDTH:0.42
G1 F600
G1 X45.668 Y39.02 E.02233
G1 X46.344 Y38.573 E.02539
G1 X46.926 Y38.37 E.01935
G1 X54.508 Y37.236 E.24037
G1 X61.946 Y36.346 E.23485
G1 X69.405 Y35.664 E.23485
G1 X76.88 Y35.192 E.23485
G1 X84.366 Y34.929 E.23485
G1 X91.856 Y34.876 E.23485
G1 X99.378 Y35.034 E.2359
G1 X106.859 Y35.402 E.23485
G1 X114.327 Y35.979 E.23485
G1 X121.776 Y36.765 E.23485
G1 X129.167 Y37.755 E.23381
G1 X133.145 Y38.388 E.12629
G1 X133.871 Y38.687 E.02461
G1 X134.295 Y38.989 E.01632
G1 X134.725 Y39.447 E.01968
G1 X135.092 Y40.102 E.02355
G1 X135.286 Y40.899 E.02571
G1 X135.298 Y42.357 E.04573
G1 X130.632 Y142.857 E3.1545
G1 X130.18 Y144.144 E.04278
G1 X129.095 Y144.971 E.04278
G1 X128.257 Y145.124 E.02669
G1 X51.743 Y145.124 E2.39906
G1 X50.436 Y144.732 E.04278
M73 P0 R84
G1 X49.559 Y143.687 E.04278
G1 X49.368 Y142.857 E.02669
G1 X44.702 Y42.357 E3.1545
G1 X44.714 Y40.906 E.04551
M73 P1 R84
G1 X44.892 Y40.141 E.02462
G1 X45.17 Y39.608 E.01885
M204 P1000
; printing object Pi4 Sled.stl id:0 copy 0
G1 E-2.24 F2700
;WIPE_START
G1 F7200
G1 X45.668 Y39.02 E-.2745
G1 X46.344 Y38.573 E-.28853
G1 X46.926 Y38.37 E-.21985
G1 X47.285 Y38.317 E-.12912
;WIPE_END
G1 E-.048 F2700
G1 Z.4 F720
G1 X52.907 Y42.468 F9000
G1 Z.2 F720
G1 E3.2 F1500
M204 P800
;TYPE:Perimeter
;WIDTH:0.419999
G1 F600
G1 X52.891 Y42.319 E.0047
G1 X52.717 Y42.083 E.00921
G1 X52.364 Y41.96 E.01171
G1 X49.515 Y41.96 E.08934
;WIDTH:0.464418
G1 X49.415 Y41.937 E.00358
;WIDTH:0.508837
G1 X49.315 Y41.915 E.00396
;WIDTH:0.553256
G1 X49.216 Y41.893 E.00433
;WIDTH:0.597674
G1 X49.116 Y41.871 E.00471
G1 X48.518 Y41.889 E.02761
;WIDTH:0.560727
G1 X47.919 Y41.908 E.02577
;WIDTH:0.52378
G1 X47.917 Y41.462 E.01784
G1 X48.122 Y41.43 E.00827
;WIDTH:0.560727
G1 X48.598 Y41.375 E.02062
;WIDTH:0.597674
G1 X49.073 Y41.319 E.02209
G1 X49.168 Y41.282 E.00471
;WIDTH:0.553256
G1 X49.263 Y41.245 E.00433
;WIDTH:0.508837
G1 X49.359 Y41.208 E.00396
;WIDTH:0.464418
G1 X49.454 Y41.17 E.00358
;WIDTH:0.419999
G1 X51.28 Y40.887 E.05795
G1 X54.945 Y40.37 E.11604
G1 X58.616 Y39.905 E.11604
G1 X62.294 Y39.491 E.11604
G1 X65.977 Y39.128 E.11604
G1 X69.665 Y38.818 E.11604
G1 X73.357 Y38.559 E.11604
G1 X77.052 Y38.351 E.11604
G1 X80.749 Y38.196 E.11604
G1 X84.449 Y38.092 E.11603
G1 X88.612 Y38.04 E.13054
G1 X91.85 Y38.04 E.10155
G1 X95.551 Y38.092 E.11604
G1 X99.25 Y38.196 E.11604
G1 X102.948 Y38.351 E.11604
G1 X106.643 Y38.559 E.11604
G1 X110.335 Y38.818 E.11603
G1 X114.023 Y39.129 E.11604
G1 X117.706 Y39.491 E.11604
G1 X121.384 Y39.905 E.11604
G1 X125.055 Y40.37 E.11604
G1 X128.72 Y40.887 E.11604
G1 X130.542 Y41.17 E.05781
;WIDTH:0.464418
G1 X130.637 Y41.208 E.00358
;WIDTH:0.508836
G1 X130.732 Y41.245 E.00396
;WIDTH:0.553254
G1 X130.827 Y41.282 E.00433
;WIDTH:0.597672
G1 X130.922 Y41.319 E.00471
G1 X131.503 Y41.391 E.02697
;WIDTH:0.56054
G1 X132.083 Y41.462 E.02516
;WIDTH:0.523407
G1 X132.081 Y41.908 E.01781
G1 X131.842 Y41.908 E.00955
;WIDTH:0.56054
G1 X131.361 Y41.889 E.02071
;WIDTH:0.597672
G1 X130.88 Y41.871 E.0222
G1 X130.78 Y41.893 E.00471
;WIDTH:0.553254
G1 X130.68 Y41.915 E.00433
;WIDTH:0.508836
G1 X130.581 Y41.937 E.00396
;WIDTH:0.464418
G1 X130.481 Y41.96 E.00358
;WIDTH:0.419999
G1 X127.636 Y41.96 E.08921
G1 X127.283 Y42.083 E.01171
G1 X127.109 Y42.319 E.00921
G1 X127.07 Y42.525 E.00657
G1 X127.07 Y141.96 E3.11769
G1 X52.93 Y141.96 E2.32462
G1 X52.93 Y42.673 E3.11307
G1 X52.914 Y42.528 E.00457
M204 P1000
G1 X52.553 Y42.525 F9000
M204 P800
;TYPE:External perimeter
G1 F600
G1 X52.482 Y42.378 E.00513
G1 X52.364 Y42.337 E.0039
G1 X47.581 Y42.333 E.14998
G1 X47.492 Y42.252 E.00377
G1 X47.511 Y41.133 E.03507
G1 X47.607 Y41.076 E.00352
G1 X51.225 Y40.514 E.11479
G1 X54.895 Y39.996 E.11621
G1 X58.571 Y39.53 E.1162
G1 X62.254 Y39.116 E.11621
G1 X65.943 Y38.753 E.11621
G1 X69.636 Y38.442 E.1162
G1 X73.333 Y38.182 E.11621
G1 X77.033 Y37.975 E.1162
G1 X80.736 Y37.819 E.1162
G1 X84.441 Y37.715 E.11621
G1 X88.609 Y37.663 E.1307
G1 X91.853 Y37.663 E.10171
G1 X95.559 Y37.715 E.1162
G1 X99.264 Y37.819 E.11621
G1 X102.967 Y37.975 E.11621
G1 X106.667 Y38.182 E.1162
G1 X110.364 Y38.442 E.1162
G1 X114.057 Y38.753 E.11621
G1 X117.746 Y39.116 E.1162
G1 X121.429 Y39.531 E.11621
G1 X125.105 Y39.997 E.1162
G1 X128.775 Y40.514 E.11621
G1 X132.358 Y41.071 E.11367
G1 X132.489 Y41.134 E.00458
M73 P1 R83
G1 X132.511 Y41.671 E.01685
G1 X132.498 Y42.273 E.01888
G1 X132.397 Y42.337 E.00376
G1 X127.636 Y42.337 E.14927
G1 X127.518 Y42.378 E.0039
G1 X127.447 Y42.525 E.00513
G1 X127.447 Y142.337 E3.12951
G1 X52.553 Y142.337 E2.34826
M73 P2 R83
G1 X52.553 Y42.585 E3.12763
M204 P1000
G1 X52.636 Y42.384 F9000
G1 E-2.24 F2700
;WIPE_START
G1 F7200
G1 X52.482 Y42.378 E-.07812
G1 X52.364 Y42.337 E-.04434
G1 X50.148 Y42.335 E-.78954
;WIPE_END
G1 E-.048 F2700
G1 Z.4 F720
G1 X114.605 Y132.185 F9000
G1 Z.2 F720
G1 E3.2 F1500
M204 P800
;TYPE:Perimeter
;WIDTH:0.472326
G1 F600
G1 X114.679 Y132.24 E.00328
;WIDTH:0.446163
G1 X114.82 Y132.344 E.00587
;WIDTH:0.419999
G1 X114.939 Y132.585 E.00842
G1 X114.932 Y132.86 E.00862
G1 X114.472 Y133.741 E.03117
G1 X114.17 Y134.191 E.017
G1 X113.762 Y134.684 E.02006
G1 X113.373 Y135.065 E.01708
G1 X112.874 Y135.464 E.02005
G1 X111.955 Y135.996 E.03326
G1 X111.343 Y136.242 E.02071
G1 X110.72 Y136.412 E.02022
G1 X110.181 Y136.5 E.01714
G1 X109.517 Y136.54 E.02086
G1 X70.506 Y136.54 E1.22314
G1 X69.996 Y136.516 E.01603
G1 X69.367 Y136.425 E.01992
G1 X68.74 Y136.262 E.02031
G1 X67.768 Y135.846 E.03317
G1 X67.202 Y135.502 E.02075
G1 X66.693 Y135.103 E.02028
G1 X65.965 Y134.334 E.0332
G1 X65.584 Y133.793 E.02073
G1 X65.192 Y133.076 E.02562
G1 X65.073 Y132.765 E.01044
G1 X65.125 Y132.465 E.00955
G1 X65.328 Y132.234 E.00964
;WIDTH:0.457124
G1 X65.631 Y132.118 E.01118
G1 X66.156 Y132.048 E.01824
;WIDTH:0.441329
G1 X66.703 Y131.911 E.01869
;WIDTH:0.444159
G1 X67.178 Y131.753 E.01671
G1 X67.737 Y131.448 E.02123
;WIDTH:0.436396
G1 X68.174 Y131.128 E.01774
;WIDTH:0.443783
G1 X68.551 Y130.798 E.01669
G1 X68.927 Y130.322 E.02021
;WIDTH:0.434303
G1 X69.223 Y129.832 E.01863
;WIDTH:0.443365
G1 X69.439 Y129.381 E.01667
G1 X69.6 Y128.796 E.02019
;WIDTH:0.433892
G1 X69.684 Y128.23 E.01859
;WIDTH:0.443588
G1 X69.706 Y127.718 E.01709
G1 X69.62 Y127.1 E.02079
;WIDTH:0.435485
G1 X69.48 Y126.576 E.0177
;WIDTH:0.443009
G1 X69.299 Y126.094 E.01711
G1 X68.996 Y125.585 E.01972
;WIDTH:0.433587
G1 X68.647 Y125.132 E.01859
;WIDTH:0.442448
G1 X68.278 Y124.747 E.0177
;WIDTH:0.442641
G1 X67.786 Y124.376 E.02048
G1 X67.316 Y124.125 E.01771
;WIDTH:0.441609
G1 X66.825 Y123.918 E.01767
G1 X66.266 Y123.788 E.01901
;WIDTH:0.442299
G1 X65.678 Y123.71 E.0197
;WIDTH:0.45136
G1 X65.121 Y123.669 E.01897
G1 X64.84 Y123.459 E.01192
;WIDTH:0.419999
G1 X64.73 Y123.209 E.00856
G1 X64.721 Y122.663 E.01712
G1 X64.721 Y74.692 E1.50411
G1 X64.748 Y74.521 E.00542
G1 X64.89 Y74.288 E.00856
;WIDTH:0.461625
G1 X65.205 Y74.111 E.01257
G1 X65.708 Y74.094 E.01753
;WIDTH:0.442501
G1 X66.258 Y74.032 E.0184
G1 X66.753 Y73.896 E.01703
;WIDTH:0.439265
G1 X67.243 Y73.72 E.01717
G1 X67.711 Y73.464 E.01758
;WIDTH:0.434921
G1 X68.175 Y73.128 E.01866
;WIDTH:0.443934
G1 X68.551 Y72.799 E.01668
G1 X68.927 Y72.322 E.02024
;WIDTH:0.434451
G1 X69.224 Y71.832 E.01864
;WIDTH:0.443505
G1 X69.439 Y71.381 E.01666
G1 X69.6 Y70.796 E.02021
;WIDTH:0.434021
G1 X69.683 Y70.23 E.01862
;WIDTH:0.442995
G1 X69.704 Y69.709 E.01732
G1 X69.619 Y69.099 E.02052
;WIDTH:0.435018
G1 X69.48 Y68.575 E.01767
;WIDTH:0.442289
G1 X69.291 Y68.077 E.0177
G1 X68.995 Y67.584 E.01907
;WIDTH:0.434327
G1 X68.647 Y67.13 E.01861
;WIDTH:0.442397
G1 X68.278 Y66.746 E.01771
;WIDTH:0.44272
G1 X67.786 Y66.376 E.02045
G1 X67.316 Y66.125 E.01771
;WIDTH:0.441556
G1 X66.825 Y65.918 E.01767
G1 X66.267 Y65.788 E.019
;WIDTH:0.442243
G1 X65.678 Y65.711 E.0197
;WIDTH:0.451356
G1 X65.121 Y65.669 E.01897
G1 X64.84 Y65.459 E.01192
;WIDTH:0.419999
G1 X64.73 Y65.209 E.00855
G1 X64.721 Y64.663 E.01714
G1 X64.72 Y54.743 E.31103
G1 X64.747 Y54.194 E.01722
G1 X64.828 Y53.634 E.01775
G1 X64.953 Y53.121 E.01655
G1 X65.16 Y52.534 E.01953
G1 X65.383 Y52.057 E.0165
G1 X65.702 Y51.52 E.01958
G1 X66.014 Y51.098 E.01645
G1 X66.433 Y50.636 E.01956
G1 X66.816 Y50.314 E.01568
G1 X67.221 Y49.983 E.01641
G1 X67.773 Y49.643 E.02032
G1 X68.248 Y49.415 E.01653
G1 X68.834 Y49.203 E.01955
G1 X69.424 Y49.059 E.01903
G1 X70.509 Y48.954 E.03417
G1 X109.517 Y48.954 E1.22306
G1 X110.032 Y48.977 E.01616
G1 X110.626 Y49.062 E.01881
G1 X111.234 Y49.217 E.01967
G1 X112.179 Y49.606 E.03205
G1 X112.739 Y49.936 E.0204
G1 X113.238 Y50.314 E.0196
G1 X113.897 Y50.965 E.02905
G1 X114.289 Y51.469 E.02002
G1 X114.616 Y52.007 E.01973
G1 X114.844 Y52.482 E.01653
G1 X115.057 Y53.068 E.01956
G1 X115.204 Y53.677 E.01962
G1 X115.303 Y54.654 E.03081
G1 X115.304 Y65.113 E.32792
G1 X115.226 Y65.4 E.00933
;WIDTH:0.427371
G1 X114.998 Y65.62 E.01013
;WIDTH:0.458393
G1 X114.769 Y65.697 E.00833
G1 X114.154 Y65.721 E.02128
;WIDTH:0.442308
G1 X113.579 Y65.817 E.01937
;WIDTH:0.438821
G1 X113.069 Y65.974 E.01756
;WIDTH:0.435156
G1 X112.547 Y66.211 E.01868
;WIDTH:0.44412
G1 X112.106 Y66.466 E.01702
G1 X111.649 Y66.85 E.0199
;WIDTH:0.434684
G1 X111.261 Y67.271 E.01865
;WIDTH:0.443724
G1 X110.953 Y67.678 E.01701
G1 X110.685 Y68.212 E.01989
;WIDTH:0.434237
G1 X110.492 Y68.75 E.01863
;WIDTH:0.443264
G1 X110.368 Y69.246 E.01699
G1 X110.329 Y69.841 E.01987
;WIDTH:0.433811
G1 X110.361 Y70.413 E.0186
;WIDTH:0.442743
G1 X110.446 Y70.936 E.01764
G1 X110.638 Y71.48 E.01916
;WIDTH:0.433723
G1 X110.89 Y71.994 E.0186
;WIDTH:0.441795
G1 X111.175 Y72.444 E.01768
G1 X111.563 Y72.868 E.01904
;WIDTH:0.434105
G1 X111.994 Y73.244 E.01862
;WIDTH:0.440821
G1 X112.434 Y73.544 E.01763
G1 X112.955 Y73.784 E.01898
;WIDTH:0.434505
G1 X113.499 Y73.962 E.01864
;WIDTH:0.439859
G1 X114.022 Y74.066 E.01759
;WIDTH:0.446934
G1 X114.584 Y74.105 E.01893
;WIDTH:0.45734
G1 X114.768 Y74.109 E.00634
G1 X115.064 Y74.23 E.01103
;WIDTH:0.419999
G1 X115.26 Y74.473 E.00977
G1 X115.304 Y74.733 E.00829
G1 X115.304 Y123.112 E1.51687
G1 X115.226 Y123.399 E.00933
;WIDTH:0.427441
M73 P3 R83
G1 X114.998 Y123.619 E.01013
;WIDTH:0.458824
G1 X114.77 Y123.696 E.00832
G1 X114.154 Y123.721 E.02133
;WIDTH:0.442448
G1 X113.579 Y123.817 E.01937
;WIDTH:0.438783
G1 X113.069 Y123.974 E.01756
;WIDTH:0.435107
G1 X112.547 Y124.211 E.01867
;WIDTH:0.444038
G1 X112.106 Y124.466 E.01701
G1 X111.649 Y124.85 E.01991
;WIDTH:0.441746
G1 X111.257 Y125.255 E.01869
G1 X110.943 Y125.724 E.01872
;WIDTH:0.436457
G1 X110.674 Y126.23 E.01873
;WIDTH:0.436948
G1 X110.492 Y126.731 E.01747
G1 X110.376 Y127.292 E.01877
;WIDTH:0.437481
G1 X110.324 Y127.861 E.01876
G1 X110.353 Y128.394 E.0175
G1 X110.466 Y128.955 E.01878
;WIDTH:0.436923
G1 X110.641 Y129.5 E.01876
G1 X110.876 Y129.979 E.01747
;WIDTH:0.436519
G1 X111.198 Y130.452 E.01875
;WIDTH:0.43762
G1 X111.572 Y130.886 E.01879
G1 X111.977 Y131.233 E.0175
;WIDTH:0.435886
G1 X112.458 Y131.544 E.01871
;WIDTH:0.438369
G1 X112.971 Y131.798 E.01883
G1 X113.48 Y131.959 E.01754
;WIDTH:0.442538
G1 X114.032 Y132.072 E.01872
;WIDTH:0.472326
G1 X114.557 Y132.15 E.01898
M204 P1000
G1 X114.415 Y132.522 F9000
M204 P800
;TYPE:External perimeter
;WIDTH:0.419999
G1 F600
G1 X114.546 Y132.607 E.00491
G1 X114.569 Y132.759 E.0048
G1 X114.14 Y133.561 E.02853
G1 X113.858 Y133.98 E.01583
G1 X113.472 Y134.442 E.01886
G1 X113.11 Y134.795 E.01587
G1 X112.64 Y135.169 E.01884
G1 X111.769 Y135.668 E.03148
G1 X111.205 Y135.891 E.019
G1 X110.623 Y136.048 E.01889
G1 X110.122 Y136.128 E.01591
G1 X109.517 Y136.163 E.01901
G1 X70.506 Y136.163 E1.22314
G1 X69.995 Y136.137 E.01605
M73 P3 R82
G1 X69.422 Y136.052 E.01816
G1 X68.837 Y135.897 E.01897
G1 X67.918 Y135.5 E.03141
G1 X67.402 Y135.181 E.01902
G1 X66.927 Y134.807 E.01895
G1 X66.241 Y134.076 E.03144
G1 X65.894 Y133.579 E.01901
G1 X65.524 Y132.897 E.02432
G1 X65.448 Y132.702 E.00656
G1 X65.513 Y132.565 E.00476
G1 X65.787 Y132.495 E.00887
G1 X66.421 Y132.4 E.0201
G1 X67.314 Y132.123 E.02931
G1 X68.128 Y131.673 E.02916
G1 X68.834 Y131.068 E.02916
G1 X69.404 Y130.333 E.02916
G1 X69.815 Y129.498 E.02916
G1 X70.048 Y128.598 E.02917
G1 X70.097 Y127.7 E.02819
G1 X69.962 Y126.779 E.02917
G1 X69.644 Y125.905 E.02916
G1 X69.156 Y125.113 E.02916
G1 X68.516 Y124.433 E.0293
G1 X68.101 Y124.114 E.0164
G1 X67.695 Y123.87 E.01484
G1 X66.906 Y123.53 E.02696
G1 X65.99 Y123.338 E.02932
G1 X65.277 Y123.3 E.0224
G1 X65.138 Y123.228 E.00491
G1 X65.098 Y123.005 E.0071
G1 X65.098 Y74.692 E1.51482
G1 X65.155 Y74.557 E.00457
G1 X65.277 Y74.503 E.00421
G1 X65.965 Y74.469 E.02158
G1 X66.463 Y74.387 E.01584
G1 X67.313 Y74.123 E.0279
G1 X68.127 Y73.673 E.02916
G1 X68.834 Y73.069 E.02916
G1 X69.404 Y72.334 E.02917
G1 X69.815 Y71.499 E.02916
G1 X70.048 Y70.599 E.02917
G1 X70.096 Y69.669 E.02917
G1 X69.954 Y68.75 E.02916
G1 X69.631 Y67.878 E.02917
G1 X69.138 Y67.089 E.02917
G1 X68.517 Y66.434 E.0283
G1 X68.1 Y66.114 E.01647
G1 X67.695 Y65.87 E.01483
G1 X66.907 Y65.531 E.02692
G1 X65.991 Y65.339 E.02932
G1 X65.277 Y65.3 E.02243
G1 X65.138 Y65.228 E.00491
G1 X65.099 Y65.004 E.00711
G1 X65.097 Y54.743 E.32174
G1 X65.12 Y54.248 E.01552
G1 X65.201 Y53.688 E.01775
G1 X65.324 Y53.195 E.01595
G1 X65.515 Y52.66 E.01778
G1 X65.732 Y52.202 E.01592
G1 X66.025 Y51.715 E.01781
G1 X66.328 Y51.309 E.01589
G1 X66.711 Y50.89 E.01777
G1 X67.46 Y50.274 E.0304
G1 X67.967 Y49.966 E.01862
G1 X68.425 Y49.75 E.01587
G1 X68.961 Y49.558 E.01785
G1 X69.462 Y49.434 E.01617
G1 X70.509 Y49.331 E.033
G1 X109.517 Y49.331 E1.22306
G1 X110.011 Y49.354 E.01552
G1 X110.572 Y49.435 E.01776
G1 X111.139 Y49.582 E.01836
G1 X112.033 Y49.954 E.03039
G1 X112.545 Y50.259 E.01867
G1 X113.009 Y50.613 E.0183
G1 X113.63 Y51.232 E.02749
G1 X113.989 Y51.699 E.01846
G1 X114.293 Y52.201 E.01843
G1 X114.511 Y52.661 E.01593
G1 X114.701 Y53.195 E.0178
G1 X114.837 Y53.763 E.01831
G1 X114.926 Y54.654 E.02807
G1 X114.927 Y65.113 E.32792
G1 X114.901 Y65.208 E.00311
G1 X114.754 Y65.301 E.00545
G1 X114.134 Y65.333 E.01948
G1 X113.606 Y65.404 E.0167
G1 X112.712 Y65.682 E.02933
G1 X111.898 Y66.131 E.02916
G1 X111.191 Y66.736 E.02917
G1 X110.621 Y67.471 E.02917
G1 X110.211 Y68.306 E.02916
G1 X109.977 Y69.206 E.02917
G1 X109.93 Y70.135 E.02917
G1 X110.071 Y71.055 E.02916
G1 X110.395 Y71.927 E.02917
G1 X110.888 Y72.716 E.02916
G1 X111.529 Y73.389 E.02917
G1 X112.294 Y73.919 E.02916
G1 X113.149 Y74.284 E.02916
G1 X114.066 Y74.47 E.02933
G1 X114.748 Y74.504 E.02141
G1 X114.847 Y74.538 E.00329
G1 X114.926 Y74.671 E.00483
G1 X114.927 Y123.112 E1.51883
G1 X114.901 Y123.208 E.00311
