; generated by PrusaSlicer 2.5.0+MacOS-arm64 on 2022-10-10 at 16:25:34 UTC


;
;

;
;
; 

; external perimeters extrusion width = 0.45mm
; perimeters extrusion width = 0.45mm
; infill extrusion width = 0.45mm
; solid infill extrusion width = 0.45mm
; top infill extrusion width = 0.40mm
; support material extrusion width = 0.35mm
; first layer extrusion width = 0.42mm

M73 P0 R314
M201 X2500 Y2500 Z400 E5000 ; sets maximum accelerations, mm/sec^2
M203 X180 Y180 Z12 E80 ; sets maximum feedrates, mm / sec
M204 P1250 R1250 T2500 ; sets acceleration (P, T) and retract acceleration (R), mm/sec^2
M205 X8.00 Y8.00 Z2.00 E10.00 ; sets the jerk limits, mm/sec
M205 S0 T0 ; sets the minimum extruding and travel feed rate, mm/sec
M107
;TYPE:Custom
M862.3 P "MINI" ; printer model check
G90 ; use absolute coordinates
M83 ; extruder relative mode
M104 S170 ; set extruder temp for bed leveling
M140 S85 ; set bed temp
M109 R170 ; wait for bed leveling temp
M190 S85 ; wait for bed temp
M204 T1250 ; set travel acceleration
G28 ; home all without mesh bed level
G29 ; mesh bed leveling 
M204 T2500 ; restore travel acceleration
M104 S230 ; set extruder temp
G92 E0
G1 Y-2 X179 F2400
G1 Z3 F720
M109 S230 ; wait for extruder temp

; intro line
G1 X170 F1000
G1 Z0.2 F720
G1 X110 E8 F900
G1 X40 E10 F700
G92 E0

M221 S95 ; set flow
G21 ; set units to millimeters
G90 ; use absolute coordinates
M83 ; use relative distances for extrusion
M900 K0.2 ; Filament gcode
M107
;LAYER_CHANGE
;Z:0.2
;HEIGHT:0.2
;BEFORE_LAYER_CHANGE
G92 E0.0
;0.2


G1 E-3.2 F2700
M73 P0 R313
G1 Z.2 F720
;AFTER_LAYER_CHANGE
;0.2
G1 Z.4
G1 X2.339 Y5.454 F9000
G1 Z.2 F720
G1 E3.2 F1500
M204 P800
;TYPE:Skirt/Brim
;WIDTH:0.42
G1 F600
G1 X3.029 Y5.261 E.02245
G1 X22.464 Y3.902 E.61088
G1 X41.74 Y2.898 E.60519
G1 X61.03 Y2.229 E.60519
G1 X81.637 Y1.894 E.64621
G1 X99.672 Y1.895 E.56546
G1 X118.929 Y2.229 E.6039
G1 X138.26 Y2.901 E.60648
G1 X157.536 Y3.906 E.60519
G1 X176.825 Y5.249 E.60625
G1 X177.529 Y5.409 E.02265
G1 X178.161 Y5.732 E.02225
G1 X178.698 Y6.203 E.02242
G1 X179.097 Y6.782 E.02204
G1 X179.399 Y7.738 E.03143
G1 X179.422 Y9.319 E.04958
G1 X174.756 Y175.796 E5.2218
G1 X174.328 Y177.091 E.04278
G1 X173.259 Y177.938 E.04278
G1 X172.38 Y178.106 E.02804
G1 X7.62 Y178.106 E5.16595
G1 X6.313 Y177.715 E.04278
G1 X5.436 Y176.669 E.04278
G1 X5.244 Y175.796 E.02804
G1 X.578 Y9.32 E5.22177
G1 X.597 Y7.764 E.04879
M73 P0 R312
G1 X.822 Y6.944 E.02667
G1 X1.195 Y6.324 E.02268
G1 X1.707 Y5.821 E.0225
G1 X2.287 Y5.484 E.02105
M204 P1000
; printing object sled-netgear-gs108.stl id:0 copy 0
G1 E-2.24 F2700
;WIPE_START
G1 F7200
G1 X3.029 Y5.261 E-.27586
G1 X4.81 Y5.136 E-.63614
;WIPE_END
G1 E-.048 F2700
G1 Z.4 F720
G1 X17.814 Y80.534 F9000
G1 Z.2 F720
G1 E3.2 F1500
M204 P800
;TYPE:Support material
G1 F600
G1 X17.828 Y80.584 E.00162
G1 X17.82 Y89.556 E.28132
G1 X10.801 Y89.561 E.22009
G1 X10.798 Y80.538 E.2829
G1 X17.758 Y80.529 E.21823
M204 P1000
G1 X17.098 Y89.397 F9000
M204 P800
G1 F600
G1 X17.098 Y80.869 E.26739
G1 X16.679 Y80.869 E.01314
G1 X16.679 Y89.227 E.26207
G1 X16.26 Y89.227 E.01314
G1 X16.26 Y80.869 E.26207
G1 X15.841 Y80.869 E.01314
G1 X15.841 Y89.227 E.26207
G1 X15.422 Y89.227 E.01314
G1 X15.422 Y80.869 E.26207
G1 X15.003 Y80.869 E.01314
G1 X15.003 Y89.227 E.26207
G1 X14.584 Y89.227 E.01314
G1 X14.584 Y80.869 E.26207
G1 X14.165 Y80.869 E.01314
G1 X14.165 Y89.227 E.26207
G1 X13.746 Y89.227 E.01314
G1 X13.746 Y80.869 E.26207
G1 X13.327 Y80.869 E.01314
G1 X13.327 Y89.227 E.26207
G1 X12.908 Y89.227 E.01314
G1 X12.908 Y80.869 E.26207
G1 X12.489 Y80.869 E.01314
G1 X12.489 Y89.227 E.26207
G1 X12.07 Y89.227 E.01314
G1 X12.07 Y80.869 E.26207
G1 X11.651 Y80.869 E.01314
G1 X11.651 Y89.227 E.26207
G1 X11.232 Y89.227 E.01314
G1 X11.232 Y80.699 E.26739
M204 P1000
G1 E-2.24 F2700
;WIPE_START
G1 F7200
G1 X11.232 Y83.259 E-.912
;WIPE_END
G1 E-.048 F2700
G1 Z.4 F720
G1 X169.114 Y80.534 F9000
G1 Z.2 F720
G1 E3.2 F1500
M204 P800
G1 F600
G1 X169.128 Y80.584 E.00162
G1 X169.12 Y89.556 E.28132
G1 X162.101 Y89.561 E.22009
G1 X162.098 Y80.538 E.2829
G1 X169.058 Y80.529 E.21823
M204 P1000
G1 X168.768 Y89.397 F9000
M204 P800
G1 F600
G1 X168.768 Y80.869 E.26739
G1 X168.349 Y80.869 E.01314
G1 X168.349 Y89.227 E.26207
G1 X167.93 Y89.227 E.01314
G1 X167.93 Y80.869 E.26207
G1 X167.511 Y80.869 E.01314
G1 X167.511 Y89.227 E.26207
G1 X167.092 Y89.227 E.01314
G1 X167.092 Y80.869 E.26207
G1 X166.673 Y80.869 E.01314
G1 X166.673 Y89.227 E.26207
G1 X166.254 Y89.227 E.01314
G1 X166.254 Y80.869 E.26207
G1 X165.835 Y80.869 E.01314
G1 X165.835 Y89.227 E.26207
G1 X165.416 Y89.227 E.01314
G1 X165.416 Y80.869 E.26207
G1 X164.997 Y80.869 E.01314
G1 X164.997 Y89.227 E.26207
G1 X164.578 Y89.227 E.01314
G1 X164.578 Y80.869 E.26207
G1 X164.159 Y80.869 E.01314
G1 X164.159 Y89.227 E.26207
G1 X163.74 Y89.227 E.01314
G1 X163.74 Y80.869 E.26207
G1 X163.321 Y80.869 E.01314
G1 X163.321 Y89.227 E.26207
G1 X162.902 Y89.227 E.01314
G1 X162.902 Y80.869 E.26207
G1 X162.483 Y80.869 E.01314
G1 X162.483 Y89.397 E.26739
M204 P1000
G1 E-2.24 F2700
;WIPE_START
G1 F7200
G1 X162.483 Y86.837 E-.912
;WIPE_END
G1 E-.048 F2700
G1 Z.4 F720
G1 X8.338 Y8.975 F9000
G1 Z.2 F720
G1 E3.2 F1500
M204 P800
;TYPE:Perimeter
;WIDTH:0.419999
G1 F600
G1 X8.241 Y8.942 E.00322
G1 X6.614 Y8.942 E.05101
;WIDTH:0.465224
G1 X6.514 Y8.92 E.0036
;WIDTH:0.510448
G1 X6.414 Y8.897 E.00398
;WIDTH:0.555673
G1 X6.314 Y8.874 E.00437
;WIDTH:0.600897
G1 X6.214 Y8.852 E.00475
G1 X5.125 Y8.871 E.05053
;WIDTH:0.563115
G1 X4.037 Y8.89 E.04711
;WIDTH:0.525333
G1 X3.796 Y8.89 E.00965
G1 X3.795 Y8.423 E.0187
G1 X4.02 Y8.408 E.00905
;WIDTH:0.563115
G1 X5.107 Y8.351 E.04711
;WIDTH:0.600897
G1 X6.195 Y8.294 E.05053
G1 X6.293 Y8.265 E.00475
;WIDTH:0.555673
G1 X6.391 Y8.235 E.00437
;WIDTH:0.510448
G1 X6.489 Y8.206 E.00398
;WIDTH:0.465224
G1 X6.588 Y8.177 E.0036
;WIDTH:0.419999
G1 X22.677 Y7.059 E.50568
G1 X41.898 Y6.058 E.60347
G1 X61.133 Y5.391 E.60346
G1 X80.628 Y5.058 E.61136
G1 X99.623 Y5.058 E.59558
G1 X118.868 Y5.393 E.60347
M73 P0 R311
G1 X138.102 Y6.061 E.60346
G1 X157.323 Y7.063 E.60347
G1 X173.329 Y8.176 E.50305
;WIDTH:0.465223
G1 X173.427 Y8.206 E.0036
;WIDTH:0.510446
G1 X173.525 Y8.235 E.00398
;WIDTH:0.55567
G1 X173.623 Y8.265 E.00437
;WIDTH:0.600893
G1 X173.721 Y8.294 E.00475
G1 X174.852 Y8.353 E.05256
;WIDTH:0.561551
G1 X175.984 Y8.412 E.04886
;WIDTH:0.522209
G1 X176.207 Y8.428 E.00892
G1 X176.207 Y8.891 E.01846
G1 X175.967 Y8.891 E.00954
;WIDTH:0.561551
G1 X174.834 Y8.871 E.04886
;WIDTH:0.600893
G1 X173.702 Y8.852 E.05256
G1 X173.602 Y8.874 E.00475
;WIDTH:0.55567
G1 X173.502 Y8.897 E.00437
;WIDTH:0.510446
G1 X173.402 Y8.92 E.00398
;WIDTH:0.465223
G1 X173.302 Y8.942 E.0036
;WIDTH:0.419999
G1 X171.759 Y8.942 E.04838
G1 X171.413 Y9.06 E.01145
G1 X171.234 Y9.296 E.00927
G1 X171.193 Y9.508 E.00677
G1 X171.193 Y174.942 E5.18707
G1 X8.807 Y174.942 E5.09151
G1 X8.807 Y90.453 E2.64911
;WIDTH:0.461826
G1 X8.828 Y90.28 E.00606
;WIDTH:0.503653
G1 X8.849 Y90.107 E.00666
;WIDTH:0.545479
G1 X8.87 Y89.935 E.00727
;WIDTH:0.591413
G1 X8.893 Y89.656 E.01277
G1 X8.893 Y80.44 E.42031
G1 X8.871 Y80.316 E.00573
;WIDTH:0.54856
G1 X8.85 Y80.193 E.00528
;WIDTH:0.505706
G1 X8.828 Y80.069 E.00483
;WIDTH:0.462853
G1 X8.807 Y79.945 E.00438
;WIDTH:0.419999
G1 X8.807 Y9.508 E2.20851
G1 X8.766 Y9.296 E.00677
M73 P1 R311
G1 X8.587 Y9.06 E.00927
G1 X8.395 Y8.995 E.00635
M204 P1000
G1 X8.241 Y9.319 F9000
M204 P800
;TYPE:External perimeter
G1 F600
G1 X3.498 Y9.319 E.14873
G1 X3.367 Y9.228 E.005
G1 X3.374 Y8.081 E.03595
G1 X3.476 Y8.015 E.00384
G1 X22.654 Y6.682 E.60275
G1 X41.881 Y5.681 E.60368
M73 P1 R310
G1 X61.123 Y5.014 E.60367
G1 X80.625 Y4.681 E.61157
G1 X99.627 Y4.681 E.59578
G1 X118.877 Y5.016 E.60368
G1 X138.119 Y5.685 E.60366
G1 X157.346 Y6.687 E.60368
G1 X176.57 Y8.036 E.60424
G1 X176.636 Y8.126 E.0035
G1 X176.622 Y9.249 E.0352
G1 X176.528 Y9.319 E.00368
G1 X171.759 Y9.319 E.14954
G1 X171.644 Y9.359 E.00382
G1 X171.57 Y9.508 E.00521
G1 X171.57 Y175.319 E5.19889
G1 X8.43 Y175.319 E5.11515
G1 X8.43 Y9.508 E5.19889
G1 X8.356 Y9.359 E.00521
M73 P1 R309
G1 X8.298 Y9.339 E.00194
M204 P1000
G1 X8.138 Y8.933 F9000
G1 E-2.24 F2700
;WIPE_START
G1 F7200
G1 X5.738 Y9.328 E-.912
;WIPE_END
G1 E-.048 F2700
G1 Z.4 F720
G1 X146.752 Y39.554 F9000
G1 Z.2 F720
G1 E3.2 F1500
M204 P800
;TYPE:Perimeter
G1 F600
G1 X147.902 Y40.067 E.0395
G1 X148.785 Y40.709 E.03423
G1 X149.604 Y41.6 E.03792
G1 X150.267 Y42.749 E.04161
G1 X150.629 Y43.903 E.03792
G1 X150.745 Y45.036 E.03572
G1 X150.745 Y105.059 E1.88198
G1 X150.605 Y106.309 E.03941
G1 X150.219 Y107.455 E.03792
G1 X149.673 Y108.401 E.03423
G1 X148.873 Y109.308 E.03792
G1 X147.902 Y110.028 E.03792
G1 X146.802 Y110.532 E.03792
G1 X145.504 Y110.808 E.04161
G1 X34.412 Y110.808 E3.4832
G1 X33.227 Y110.568 E.03792
G1 X32.117 Y110.088 E.03792
G1 X31.131 Y109.387 E.03792
G1 X30.243 Y108.401 E.04161
G1 X29.697 Y107.455 E.03423
G1 X29.312 Y106.309 E.03792
G1 X29.171 Y105.059 E.03941
G1 X29.171 Y45.036 E1.88198
G1 X29.312 Y43.787 E.03941
G1 X29.697 Y42.641 E.03792
G1 X30.313 Y41.6 E.03792
G1 X31.043 Y40.788 E.03423
G1 X32.014 Y40.067 E.03792
G1 X33.227 Y39.528 E.04161
G1 X34.412 Y39.288 E.03792
G1 X145.504 Y39.288 E3.4832
G1 X146.696 Y39.531 E.03815
M204 P1000
G1 X146.595 Y39.893 F9000
M204 P800
;TYPE:External perimeter
G1 F600
G1 X147.68 Y40.372 E.0372
G1 X148.564 Y41.014 E.03423
G1 X149.324 Y41.852 E.03546
G1 X149.909 Y42.865 E.03669
G1 X150.254 Y43.942 E.03546
G1 X150.368 Y45.036 E.03449
G1 X150.368 Y105.059 E1.88198
G1 X150.246 Y106.192 E.03572
G1 X149.893 Y107.266 E.03546
G1 X149.347 Y108.212 E.03423
G1 X148.593 Y109.055 E.03546
G1 X147.68 Y109.723 E.03546
G1 X146.649 Y110.187 E.03546
G1 X145.504 Y110.43 E.03669
G1 X34.412 Y110.43 E3.4832
G1 X33.305 Y110.199 E.03546
M73 P1 R308
G1 X32.27 Y109.743 E.03546
G1 X31.353 Y109.082 E.03546
G1 X30.57 Y108.212 E.03669
G1 X30.024 Y107.266 E.03423
G1 X29.67 Y106.192 E.03546
G1 X29.548 Y105.059 E.03572
G1 X29.548 Y45.036 E1.88198
G1 X29.67 Y43.904 E.03571
G1 X30.024 Y42.829 E.03546
G1 X30.57 Y41.884 E.03423
G1 X31.323 Y41.041 E.03546
G1 X32.236 Y40.372 E.03546
G1 X33.305 Y39.896 E.03669
G1 X34.412 Y39.665 E.03546
G1 X145.504 Y39.665 E3.4832
G1 X146.536 Y39.88 E.03306
M204 P1000
G1 X146.882 Y39.615 F9000
G1 E-2.24 F2700
;WIPE_START
G1 F7200
G1 X147.68 Y40.372 E-.44362
G1 X148.564 Y41.014 E-.38897
G1 X148.713 Y41.179 E-.07941
;WIPE_END
G1 E-.048 F2700
G1 Z.4 F720
G1 X18.267 Y90.74 F9000
G1 Z.2 F720
G1 E3.2 F1500
M204 P800
;TYPE:Perimeter
G1 F600
G1 X18.199 Y90.773 E.00239
G1 X17.871 Y90.834 E.01046
G1 X10.837 Y90.834 E.22052
G1 X10.44 Y90.78 E.01255
G1 X10.094 Y90.617 E.01202
G1 X9.81 Y90.359 E.01202
;WIDTH:0.461826
G1 X9.704 Y90.186 E.00706
;WIDTH:0.503653
G1 X9.598 Y90.014 E.00776
;WIDTH:0.545479
G1 X9.492 Y89.841 E.00847
;WIDTH:0.591413
G1 X9.441 Y89.656 E.00876
G1 X9.445 Y80.38 E.42304
;WIDTH:0.588927
G1 X9.506 Y80.264 E.00596
;WIDTH:0.546695
G1 X9.567 Y80.148 E.0055
;WIDTH:0.504463
G1 X9.628 Y80.031 E.00504
;WIDTH:0.462231
G1 X9.689 Y79.915 E.00458
;WIDTH:0.419999
G1 X9.925 Y79.613 E.01202
G1 X10.24 Y79.394 E.01202
G1 X10.605 Y79.278 E.01202
G1 X10.837 Y79.262 E.0073
G1 X17.871 Y79.262 E.22052
G1 X18.302 Y79.357 E.01384
G1 X18.674 Y79.597 E.0139
G1 X18.916 Y79.895 E.01202
G1 X19.059 Y80.25 E.01202
G1 X19.095 Y80.531 E.00888
G1 X19.095 Y89.564 E.28323
G1 X19.01 Y90.007 E.01412
G1 X18.821 Y90.34 E.01202
G1 X18.542 Y90.604 E.01202
G1 X18.321 Y90.713 E.00775
M204 P1000
G1 X18.231 Y90.343 F9000
M204 P800
;TYPE:External perimeter
G1 F600
G1 X18.115 Y90.406 E.00415
G1 X17.871 Y90.456 E.00782
G1 X10.837 Y90.456 E.22052
G1 X10.578 Y90.429 E.00817
G1 X10.329 Y90.322 E.00851
G1 X10.122 Y90.147 E.00851
G1 X9.976 Y89.918 E.00851
G1 X9.904 Y89.656 E.00851
G1 X9.904 Y80.44 E.28895
G1 X10 Y80.128 E.01025
G1 X10.16 Y79.908 E.00851
G1 X10.377 Y79.745 E.00851
G1 X10.633 Y79.654 E.00851
G1 X10.837 Y79.639 E.00642
G1 X17.871 Y79.639 E.22052
G1 X18.167 Y79.711 E.00956
G1 X18.398 Y79.854 E.00851
G1 X18.576 Y80.058 E.00851
G1 X18.686 Y80.306 E.00851
G1 X18.718 Y80.531 E.00712
G1 X18.718 Y89.564 E.28323
G1 X18.67 Y89.843 E.00887
G1 X18.545 Y90.084 E.00851
G1 X18.354 Y90.277 E.00851
G1 X18.284 Y90.315 E.00248
M204 P1000
G1 X18.236 Y90.475 F9000
G1 E-2.24 F2700
;WIPE_START
G1 F7200
G1 X18.115 Y90.406 E-.06855
G1 X17.871 Y90.456 E-.08884
G1 X15.752 Y90.456 E-.75461
;WIPE_END
G1 E-.048 F2700
G1 Z.4 F720
G1 X149.626 Y164.966 F9000
G1 Z.2 F720
G1 E3.2 F1500
M204 P800
;TYPE:Perimeter
G1 F600
G1 X148.785 Y165.887 E.03909
G1 X147.8 Y166.588 E.03792
G1 X146.69 Y167.068 E.03792
G1 X145.504 Y167.308 E.03792
G1 X34.295 Y167.295 E3.48689
G1 X33.114 Y167.032 E.03792
G1 X32.117 Y166.588 E.03423
G1 X31.131 Y165.887 E.03793
G1 X31.04 Y165.804 E.00387
G1 X30.217 Y164.856 E.03935
G1 X29.649 Y163.847 E.0363
G1 X29.312 Y162.809 E.03423
G1 X29.171 Y161.559 E.03941
G1 X29.171 Y148.536 E.40833
G1 X29.287 Y147.403 E.03572
G1 X29.697 Y146.141 E.04161
G1 X30.313 Y145.1 E.03792
G1 X31.043 Y144.288 E.03423
G1 X32.014 Y143.567 E.03792
G1 X33.114 Y143.064 E.03792
G1 X34.412 Y142.788 E.04161
G1 X145.622 Y142.801 E3.48689
G1 X146.802 Y143.064 E.03792
G1 X147.8 Y143.508 E.03423
G1 X148.785 Y144.209 E.03793
G1 X148.877 Y144.292 E.00387
G1 X149.633 Y145.149 E.03582
G1 X150.219 Y146.141 E.03613
G1 X150.629 Y147.403 E.04161
G1 X150.745 Y148.536 E.03572
G1 X150.742 Y161.619 E.41019
G1 X150.605 Y162.809 E.03756
M73 P1 R307
G1 X150.267 Y163.847 E.03423
G1 X149.661 Y164.917 E.03857
M204 P1000
G1 X149.312 Y164.756 F9000
M204 P800
;TYPE:External perimeter
G1 F600
G1 X148.564 Y165.582 E.03494
G1 X147.646 Y166.243 E.03546
G1 X146.611 Y166.699 E.03546
G1 X145.504 Y166.931 E.03546
G1 X34.373 Y166.926 E3.48443
G1 X33.268 Y166.687 E.03546
M73 P2 R307
G1 X32.27 Y166.243 E.03423
G1 X31.353 Y165.582 E.03547
G1 X30.544 Y164.667 E.03828
G1 X30.008 Y163.73 E.03384
G1 X29.67 Y162.692 E.03423
G1 X29.548 Y161.559 E.03572
G1 X29.548 Y148.536 E.40833
G1 X29.662 Y147.442 E.03449
G1 X30.024 Y146.329 E.03669
G1 X30.593 Y145.352 E.03546
G1 X31.353 Y144.514 E.03546
G1 X32.27 Y143.853 E.03546
G1 X33.268 Y143.409 E.03423
G1 X34.412 Y143.165 E.03669
G1 X145.543 Y143.169 E3.48443
G1 X146.649 Y143.409 E.03546
G1 X147.646 Y143.853 E.03423
G1 X148.564 Y144.514 E.03547
G1 X149.351 Y145.398 E.03711
G1 X149.893 Y146.329 E.03378
G1 X150.254 Y147.442 E.03669
G1 X150.368 Y148.536 E.03449
G1 X150.367 Y161.579 E.40895
G1 X150.246 Y162.692 E.0351
G1 X149.909 Y163.73 E.03423
G1 X149.349 Y164.709 E.03534
M204 P1000
G1 X149.474 Y165.122 F9000
G1 E-2.24 F2700
;WIPE_START
G1 F7200
G1 X148.564 Y165.582 E-.41829
G1 X147.646 Y166.243 E-.40294
G1 X147.413 Y166.346 E-.09077
;WIPE_END
G1 E-.048 F2700
G1 Z.4 F720
G1 X170.384 Y89.621 F9000
G1 Z.2 F720
G1 E3.2 F1500
M204 P800
;TYPE:Perimeter
G1 F600
G1 X170.31 Y90.007 E.01232
G1 X170.121 Y90.34 E.01202
G1 X169.842 Y90.604 E.01202
G1 X169.499 Y90.773 E.01202
G1 X169.171 Y90.834 E.01046
G1 X162.137 Y90.834 E.22052
G1 X161.74 Y90.78 E.01255
G1 X161.394 Y90.617 E.01202
G1 X161.11 Y90.359 E.01202
G1 X160.915 Y90.029 E.01202
G1 X160.827 Y89.656 E.01202
G1 X160.827 Y80.44 E.28895
G1 X160.947 Y79.987 E.01469
G1 X161.225 Y79.613 E.0146
G1 X161.54 Y79.394 E.01202
G1 X161.905 Y79.278 E.01202
G1 X162.137 Y79.262 E.0073
G1 X169.171 Y79.262 E.22052
G1 X169.499 Y79.323 E.01046
G1 X169.842 Y79.492 E.01202
G1 X170.121 Y79.755 E.01202
G1 X170.31 Y80.089 E.01202
G1 X170.395 Y80.531 E.01412
G1 X170.395 Y89.562 E.28315
M204 P1000
G1 X169.998 Y89.679 F9000
M204 P800
;TYPE:External perimeter
G1 F600
G1 X169.97 Y89.843 E.00521
G1 X169.845 Y90.084 E.00851
G1 X169.654 Y90.277 E.00851
G1 X169.415 Y90.406 E.00851
G1 X169.171 Y90.456 E.00782
G1 X162.137 Y90.456 E.22052
G1 X161.878 Y90.429 E.00817
G1 X161.629 Y90.322 E.00851
G1 X161.422 Y90.147 E.00851
G1 X161.276 Y89.918 E.00851
G1 X161.204 Y89.656 E.00851
G1 X161.204 Y80.44 E.28895
G1 X161.3 Y80.128 E.01025
G1 X161.46 Y79.908 E.00851
G1 X161.677 Y79.745 E.00851
G1 X161.933 Y79.654 E.00851
G1 X162.137 Y79.639 E.00642
G1 X169.171 Y79.639 E.22052
G1 X169.467 Y79.711 E.00956
G1 X169.698 Y79.854 E.00851
G1 X169.876 Y80.058 E.00851
G1 X169.986 Y80.306 E.00851
